X:259
T: Wangdaniang weiji renren kua
N: C1756
O: China,Shandong Dezhou
S: III, 321]
R: Xiaodiao]
M: 2/4
L: 1/16
K: C
A2AGA2e2 | d4c4 | A2AcE2A2 | G8 |
g2A2e2eg | B2A2G4 | A2eed2A2 | c8 |
d2dde2e2 | B2B2A4 | e2z2A2z2 | e2z2A2z2 |
A2A2e2e2 | d2d2d4 | e3ee2e2 | g3BB2B2 | A2AcE2G2 | A8 |
d8 | d2B2A4 | e2e2d2B2 | c8

@@@ Tune index: 6814
